X: 144
T: No_9_The_East_God_Gave_Us_this_Dance.krn
N: Derived from No_9_The_East_God_Gave_Us_this_Dance.krn
%%abc-version 2.0
%%abcx-abcm2ps-target-version 5.9.1 (29 Sep 2008)
%%abc-creator hum2abc beta
%%abcx-conversion-date 2019/03/15 08:35:45
%%humdrum-veritas 4200812865
%%humdrum-veritas-data 1559527102
%%linebreak <none>
%%barnumbers 0
L: 1/8
M: 5/8
%%staves {1 2}
V: 1 clef=bass
V: 2 clef=bass
K: Bb
[V:1] [K:clef=bass][M:5/8]CB,CB,C [I:setbarnb 2]||  
[V:2] [K:clef=bass][M:5/8]!accent!G,,G,,!accent!G,,G,,!accent!G,, ||  
[V:1] [M:2/4]C2C2 | 
[V:2] [M:2/4]G,, zz2 | 
[V:1] C2B,2 ||  
[V:2] z4 ||  
[V:1] [M:5/8]G,G,G,G, z | 
[V:2] [M:5/8](3:2:1z15/ | 
[V:1] G,G,G,F,G, ||  
[V:2] (3:2:1z15/ ||  
[V:1] [M:2/4]G,2G,2 | 
[V:2] [M:2/4]z4 | 
[V:1] (A,2G,2) ||  
[V:2] z4 ||  
[V:1] [M:5/8]F,F,F,F, z | 
[V:2] [M:5/8](3:2:1z15/ | 
[V:1] F,F,F,D,F, ||  
[V:2] (3:2:1z15/ ||  
[V:1] [M:2/4]F,2F,2 | 
[V:2] [M:2/4]z4 | 
[V:1] (F,2D,2) ||  
[V:2] z4 ||  
[V:1] [M:5/8]C,C,C,C, z | 
[V:2] [M:5/8](3:2:1z15/ | 
[V:1] G,G,G,F,G, ||  
[V:2] (3:2:1z15/ ||  
[V:1] [M:2/4]G,2G, z | 
[V:2] [M:2/4]z4 | 
[V:1] (A,2G,2) ||  
[V:2] z4 ||  
[V:1] [M:5/8]F,F,F,F, z | 
[V:2] [M:5/8](3:2:1z15/ | 
[V:1] F,F,F,D,F, ||  
[V:2] (3:2:1z15/ ||  
[V:1] [M:2/4]F,2F,2 | 
[V:2] [M:2/4]z4 | 
[V:1] (F,2D,2) ||  
[V:2] z4 ||  
[V:1] [M:5/8]C,C,C,C, z | 
[V:2] [M:5/8](3:2:1z15/ | 
[V:1] C,C,C,B,,C, ||  
[V:2] (3:2:1z15/ ||  
[V:1] [M:2/4]C,2C,2 | 
[V:2] [M:2/4]z4 | 
[V:1] (C,2B,,2) ||  
[V:2] z4 ||  
[V:1] [M:5/8]G,,G,,G,,G,, z :|]  
[V:2] [M:5/8](3:2:1z15/ :|]  
[V:1] G,,G,,G,,F,,G,, | 
[V:2] (3:2:1z15/ | 
[V:1] [M:2/4]G,,2G,,2 | 
[V:2] [M:2/4]z4 | 
[V:1] G,,2G,,2 ||  
[V:2] z4 ||  
[V:1] [M:5/8]G,,G,,G,,G,, z |]  
[V:2] [M:5/8](3:2:1z15/ |]  
